X:1
T:Het Bedruckte Wijf
T:Gheerkin de Hondt
T:Het Bedruckte Wijf
C:Gheerkin de Hondt
%%score [ 1 2 3 4 ]
L:1/8
Q:1/4=120
M:4/4
K:Bb
V:1 treble nm="Soprano" snm="S"
V:2 treble nm="Alto" snm="A"
V:3 treble-8 nm="Tenor" snm="T"
V:4 bass nm="Bass" snm="B"
V:1
 z8 | z8 | z2 B2 B3 A | G2 F2 B4 | B2 c2 d4 | z4 d2 d2 | d4 e3 d | c2 d3 c BA | B8 | z4 d2 d2 | %10
w: ||Het was my|wel te vo-|ren ge- zeyt|dat hy|was van _|stut- zaerts ben- * *|de,|dat hy|
 d2 d2 e3 d | c2 B4 A2 | B8- | B4 z4 | z2 B2 B3 A | G2 F2 B4 | B2 c2 B2 B2 | e2 e2 d2 cB | %18
w: was van stut- *|zaerts ben- *|de,|_|Zyn spel my|nu niet lan-|gher en greyt Zyn|spel my nu niet _|
 c2 B4 A2 | B4 d2 d2 | d2 d2 e2 d2 | c2 B4 A2 | B8 | z4 d2 d2 | d4 e3 d | c2 B4 A2 | B8 | %27
w: lan- gher en|greyt in 'tbe-|gin- sel noch in|'teyn- * *|de,|in 'tbe-|gin- sel noch|in 'teyn- *|de,|
 z2 f2 f2 f2 | c3 d e2 e2 | B3 c d2 d2 | d4 c3 c | c2 c2 B2 G2 | G8- | G8- | G8- | G4 G4 | %36
w: Waer ick my|kee- * re waer|ick _ _ my|wen- de waer|ick my wen- *|de|_||* Myn|
 B3 A G2 F2 | B2 c2 d2 cB | A4 G3 F | GA B4 A2 | B8 | z2 B2 B2 c2 | d4 z4 | z2 B2 B2 c2 | %44
w: man _ _ en|is niet wel myn _|vriend, niet _|wel _ _ myn|vriend,|Een oudt gry-|zaert|Een oudt gry-|
 d2 d2 dBcd | e2 e2 d2 dd | c2 B2 B2 A2 | B8 | z2 B2 B2 c2 | d4 z4 | z2 B2 B2 c2 | d2 d2 dBcd | %52
w: zaert dat ick hy noit en|ken- de Want hy en|hebt niet dat my|dient.|Een oudt gry-|zaert|Een oudt gry-|zaert dat ick hy noit en|
 e2 e2 d2 dd | c2 B2 B2 A2 | B8 |] %55
w: ken- de Want hy en|hebt niet dat my|dient.|
V:2
 E4 E3 D | C2 B,2 E4 | E2 F2 G3 F | E2 D2 D2 D2 | E2 C2 G4- | G2 G2 F4 | G6 G2 | _A2 G2 F4 | G8 | %9
w: Het was my|wel te vo-|ren ge- zeyt _|dat hy was van|stut- * zaerts|_ dat hy|was van|stut- zaerts ben-|de,|
 z8 | G2 G2 G2 G2 | _AGFE F4 | D4 z4 | z2 E2 E3 D | C2 B,2 E4 | E2 F2 G2 F2 | G2 _A2 B2 G2- | %17
w: |dat hy was van|stut- * zaerts _ ben-|de,|Zyn spel my|nu niet lan-|gher en greyt Zyn|spel _ my nu|
 G2 A2 B4 | G4 G2 F2 | D8 | G2 G2 G2 G2 | _A2 G4 F2 | G8 | z8 | G6 G2 | _AGFE F4 | F4 z2 B2 | %27
w: _ niet lan-|gher en _|greyt|in 'tbe- gin- sel|noch in 'teyn-|de,||noch in|'teyn- * * * *|de, Waer|
 B2 B2 F3 G | _A2 A2 G4 | G2 B2 B2 B2 | F3 G _A2 A2 | E3 F G4 | E3 D C2 B,2 | E3 F G4 | %34
w: ick my kee- *|re waer ick|my wen- de Myn|man _ _ en|is _ niet|wel _ _ myn|vriend, _ _|
 E3 D C2 B,2 | E3 F G4 | E4 z2 D2 | G2 A2 B2 G2- | G2 F2 (3E2 F2 G2 | E2 F2 G2 F2 | D8 | %41
w: en _ is niet|wel _ myn|vriend, Myn|man en is niet|_ _ wel _ myn|vriend, niet wel myn|vriend,|
 z2 D2 G2 F2 | D4 z4 | z2 G2 G2 G2 | B2 B2 BB_AF | B2 B2 B2 BB | G2 G2 F2 F2 | D8 | z2 B,2 E2 E2 | %49
w: Een oudt gry-|zaert|Een oudt gry-|zaert dat ick hy noit en|ken- de Want hy en|hebt niet dat my|dient.|Een oudt gry-|
 D4 z4 | z2 G2 G2 A2 | B2 B2 BBAA | B2 B2 B2 FF | _A2 E2 F2 F2 | D8 |] %55
w: zaert|Een oudt gry-|zaert dat ick hy noit en|ken- de Want hy en|hebt niet dat my|dient.|
V:3
 z8 | z8 | z8 | B4 B3 A | G2 F2 B4 | B2 c2 dcBA | B c2 =B c4 | z4 d2 d2 | d4 e2 d2 | c2 B3 G c2- | %10
w: |||Het was my|wel te vo-|ren ge- zeyt _ _ _|_ _ _ _|dat hy|was van _|stut- zaerts _ ben-|
 c2 =B2 c2 e2 | f2 B2 c4 | B4 z2 e2 | e3 d c2 B2 | e2 ef g4 | z2 B2 B3 A | G2 F2 B4 | B2 c2 d2 d2 | %18
w: * * de, van|stut- zaerts ben-|de, Zyn|spel my nu niet|lan- gher en greyt|Zyn spel my|nu _ niet|my _ nu niet|
 e2 e2 c4 | B8- | B8 | z4 d2 d2 | d2 d2 e2 d2 | c2 B3 G c2- | c2 =B2 c2 e2 | f2 B2 c4 | B8 | %27
w: lan- gher en|greyt|_|in 'tbe-|gin- sel noch in|'teyn- de, in _|_ 'tbe- gin- sel|noch in 'teyn-|de,|
 z4 z2 f2 | f2 f2 c3 d | e2 e2 d2 d2 | z2 f2 f2 f2 | c3 d e2 e2 | e2 B2 e3 d | c2 B2 e3 f | %34
w: Waer|ick my keer' waer|ick my wen- de|Waer ick my|keer' waer ick my|wen- de Myn _|man is niet _|
 g4 e3 d | c2 B2 e3 f | g4 B3 A | G2 F2 B2 c2 | d4 e4- | e2 d2 c4 | B8- | B4 z4 | z2 B2 B2 c2 | %43
w: wel myn _|vriend, Myn man en|is niet _|wel en is niet|wel _|_ _ myn|vriend,|_|Een oudt gry-|
 d2 d2 d2 e2 | f2 f2 fgfd | g2 g2 f2 ff | e2 d2 c2 c2 | B8- | B4 z4 | z2 B2 B2 c2 | d2 d2 d2 f2 | %51
w: zaert dat ick hy|noit dat ick hy noit en|ken- de Want hy en|hebt niet dat my|dient.|_|Een oudt gry-|zaert dat ick hy|
 f2 f2 f2 f2 | g2 gg f2 d2 | e2 B2 c2 c2 | B8 |] %55
w: noit en ken- de|Want hy en hebt niet|hebt niet dat my|dient.|
V:4
 z8 | E,4 E,3 D, | C,2 B,,2 E,4 | E,2 F,2 G,3 F, | E,2 _A,2 G,3 F, | E,2 E,2 D,4 | G,4 C,4 | z8 | %8
w: |Het was my|wel te vo-|ren ge- zeyt _|_ te vo- *|* ren ge-|zeyt _||
 G,2 G,2 G,2 G,2 | _A,2 G,4 F,2 | G,4 C,2 C2 | F,2 G,2 F,4 | G,4 G,2 E,2 | E,8- | E,4 E,4 | z8 | %16
w: dat hy was van|stut- zaerts _|ben- de, dat|hy _ was|van stut- zaerts|ben-|* de,||
 z4 E,2 E,2- | E,D, C,2 B,,4 | E,4 E,2 F,2 | G,8- | G,8 | z8 | G,2 G,2 G,2 G,2 | _A,2 G,2 G,2 F,2 | %24
w: Zyn spel|_ my nu niet|lan- gher en|greyt|_||in 'tbe- gin- sel|noch in 'teyn- *|
 G,4 C,2 C2 | F,2 G,2 F,4 | B,,8- | B,,8 | z8 | z4 B,4 | B,2 B,2 F,3 G, | _A,2 A,2 G,2 E,2 | E,8- | %33
w: de, noch in|'teyn- * *|de,|_||Waer|ick my keer' waer|ick my wen- *|de|
 E,8- | E,8- | E,8 | z8 | z8 | z4 E,3 D, | C,2 B,,2 E,2 F,2 | G,8- | G,4 z4 | z2 D,2 G,2 F,2 | %43
w: _|||||Myn man|is niet wel myn|vriend,|_|Een oudt gry-|
 D,2 G,2 G,2 C2 | B,2 B,3 G, _A,B, | E,2 E,2 B,2 B,B, | E,2 E,2 F,2 F,2 | B,,8- | B,,4 z4 | %49
w: zaert dat ick hy|noit en _ ken- *|ken- de Want hy en|hebt niet dat my|dient.|_|
 z2 B,,2 E,2 E,2 | D,2 G,2 G,2 F,2 | B,2 B,2 F,2 F,2 | E,4 B,3 B, | _A,2 G,2 F,2 F,2 | B,,8 |] %55
w: Een oudt gry-|zaert dat ick hy|noit en ken- de|Want hy en|hebt niet dat my|dient.|

